X: 9109
T: Da Sooth End
R: jig
M: 6/8
K: Amajor
e|:cAA dBB|ecc fdd|ecc acA|GBB B2 e|
cAA dBB|ecc fdd|efe dcB|cAA A2:|

